optimized/solid/chevron-double-up.svg

<svg xmlns="http://www.w3.org/2000/svg" viewBox="0 0 20 20" fill="currentColor" aria-hidden="true">
  <path fill-rule="evenodd" d="M4.29289 15.7071C3.90237 15.3166 3.90237 14.6834 4.29289 14.2929L9.29289 9.29289C9.68342 8.90237 10.3166 8.90237 10.7071 9.29289L15.7071 14.2929C16.0976 14.6834 16.0976 15.3166 15.7071 15.7071C15.3166 16.0976 14.6834 16.0976 14.2929 15.7071L10 11.4142L5.70711 15.7071C5.31658 16.0976 4.68342 16.0976 4.29289 15.7071ZM4.29289 9.70711C3.90237 9.31658 3.90237 8.68342 4.29289 8.29289L9.29289 3.29289C9.68342 2.90237 10.3166 2.90237 10.7071 3.29289L15.7071 8.29289C16.0976 8.68342 16.0976 9.31658 15.7071 9.70711C15.3166 10.0976 14.6834 10.0976 14.2929 9.70711L10 5.41421L5.70711 9.70711C5.31658 10.0976 4.68342 10.0976 4.29289 9.70711Z" clip-rule="evenodd"/>
</svg>

<svg xmlns="http://www.w3.org/2000/svg" viewBox="0 0 20 20" fill="currentColor" aria-hidden="true">
  <path fill-rule="evenodd" d="M4.293 15.707a1 1 0 010-1.414l5-5a1 1 0 011.414 0l5 5a1 1 0 01-1.414 1.414L10 11.414l-4.293 4.293a1 1 0 01-1.414 0zm0-6a1 1 0 010-1.414l5-5a1 1 0 011.414 0l5 5a1 1 0 01-1.414 1.414L10 5.414 5.707 9.707a1 1 0 01-1.414 0z" clip-rule="evenodd"/>
</svg>
